X: 1
T: the Quaker Polka
S: https://thesession.org/tunes/10582
R: polka, march
M: 2/4
L: 1/8
K: G
|:\
BB A/G/F/E/ | ED DD/E/ | FF F/E/F | AG/F/ GB/c/ |
de/d/ cB | AE Ec | B/A/G/F/ EF |1 G3 G/A/ :|2 G3 F/G/ |]
K:D
|:\
AA BB | A/G/F/G/ AF/A/ | G/F/E/F/ GE/G/ | F/E/D/E/ FF/G/ |
AA BB | A/G/F/G/ AF | G/F/E/F/ G/A/B/c/ |1 d3 F/G/ :|2 d2 =c2 |]
